X: 16665
T: Hanter Dro
R: three-two
M: 3/2
K: Gmajor
|:G2DG B2c2 A4|GBDG B2c2 A4:|
|:B3A B2d2 G4|A2cB G2GB A4|B3A B2d2 G4|A2cA BGAF G4:|

